X: 2862
T: Bark In The Morning, The
R: jig
M: 6/8
K: Edorian
A|BEF GFE|Bed B2e|~g3 edB|AGA BGE|
BEF GFE|Bed B2e|~g3 edB|ABG E2:|:B|
egb bge|afd def|~g3 edB|AGA BGE|
egb bge|afd def|~g3 edB|ABG E2:|

